Sources/FrostedUI/Resources/Icons.xcassets/facebook12.imageset/facebook-12.svg

<svg width="12" height="12" viewBox="0 0 12 12" fill="none" xmlns="http://www.w3.org/2000/svg" data-fui-icon="true">
  <path
    d="M6 0.400391C9.09277 0.400391 11.5996 2.90724 11.5996 6C11.5996 8.86315 9.45167 11.2235 6.67871 11.5596L6.00586 11.6406V6.92773H7.45801L7.51855 6.59961H6.00391V5.45996C6.00391 5.00048 6.08939 4.5182 6.44336 4.16992C6.78932 3.82972 7.26313 3.74387 7.71777 3.74121V3.4834C7.54421 3.4643 7.36224 3.45218 7.23242 3.45215C6.48119 3.45215 6.05813 3.62918 5.81445 3.87793C5.56823 4.12937 5.3916 4.56844 5.3916 5.3418V6.59961H4.36035V6.92773H5.3916V11.6201L4.64746 11.4355C2.20826 10.8304 0.400391 8.62714 0.400391 6C0.400391 2.90724 2.90724 0.400391 6 0.400391ZM6 1.59961C3.56998 1.59961 1.59961 3.56998 1.59961 6C1.59961 7.78516 2.66382 9.32195 4.19238 10.0117V8.12793H3.16016V5.40039H4.19238V5.3418C4.19238 4.41335 4.40093 3.60712 4.95703 3.03906C5.51586 2.46838 6.3138 2.25195 7.23242 2.25195C7.55891 2.252 8.07422 2.30616 8.37207 2.37109C8.70915 2.44458 8.91797 2.74297 8.91797 3.05176V4.24902C8.91797 4.66727 8.5628 4.9715 8.1748 4.9502C8.0712 4.94451 7.92218 4.94141 7.74023 4.94141C7.38192 4.94141 7.2967 5.01406 7.28516 5.02539C7.27682 5.03358 7.21468 5.10239 7.20703 5.40039H8.95801L8.82812 6.1084L8.54785 7.63574L8.45801 8.12793H7.20605V10.2314C9.04956 9.70668 10.4004 8.01122 10.4004 6C10.4004 3.56998 8.43003 1.59961 6 1.59961Z"
    fill="currentColor"
  />
</svg>

<svg xmlns="http://www.w3.org/2000/svg" width="12" height="12" fill="none" data-fui-icon="true" viewBox="0 0 12 12"><path fill="currentColor" d="M6 .4a5.6 5.6 0 0 1 .679 11.16l-.673.08V6.929h1.452l.06-.328H6.005V5.46c0-.46.085-.942.44-1.29.345-.34.82-.426 1.274-.429v-.258a5 5 0 0 0-.486-.03c-.75 0-1.174.176-1.418.425-.246.251-.422.69-.422 1.464V6.6H4.36v.328h1.032v4.692l-.745-.184A5.602 5.602 0 0 1 6 .4m0 1.2a4.4 4.4 0 0 0-1.808 8.412V8.128H3.16V5.4h1.032v-.058c0-.929.209-1.735.765-2.303.559-.57 1.357-.787 2.275-.787.327 0 .842.054 1.14.12a.695.695 0 0 1 .546.68v1.197a.704.704 0 0 1-.743.701 9 9 0 0 0-.435-.009c-.358 0-.443.073-.455.084-.008.009-.07.077-.078.375h1.751l-.13.708-.28 1.528-.09.492H7.206v2.103A4.4 4.4 0 0 0 6 1.6"/></svg>
